X:5
T:Barking Up the Wrong Tree
R:reel
C: 1974, 2010 L.E. McCullough
M:4/4
L:1/8
K:G
EGGF ~G3 F | ~G3 A GEDG | EGGF GAGE |1 D~G3 ~A3G:|2 DGBG ~A3B|]
~c3A ~B3G | ~A3B G~E3 |c~A3 B~G3 | DGBG ~A3B |
(3B^cd ed =cAGE | D~G3 GABG |d~G3 d~g3 |1 edBG ~A3B:|2 edBG ~A3G|]

